X:1
T:[ID 7-132]
T:[ID 7-132]
T:Bezeichnung standardisiert: Polonaise Polonoise
T:Urheber unbekannt Datum in der hier transkribierten schriftlichen Quelle: 1796
C:Urheber unbekannt
C:Datum in der hier transkribierten schriftlichen Quelle: 1796
L:1/8
M:3/4
K:A
V:1 treble 
V:1
 e2 e2 e2 | c/e/c/A/ B/d/B/G/ A2 | E/F/G/A/ B/A/B/c/ db |{e} dc/B/ c4 | %4
{g} fg/a/ [^df][df][df][df] |{f} ef/g/ [GB][GB][GB][GB] |{A} GF/E/{AB} c2 BA | G/F/E/^D/ E2 E2 :: %8
 E2 B2 e2 | c/e/c/A/ B/d/B/G/ A2 | E2 B2 d2 | c/e/c/A/ B/d/B/G/ A2 | f/d/A/F/ Df f/g/a/f/ | %13
 e/c/A/E/ Ceed/c/ | df/e/ dcBA | G/A/B/G/ E2 E2 |!p! (e'd')(d'c') c'2 |!f! A/B/c/d/ e/d/c/B/ A2 | %18
!p! (d'c')(c'b) b2 | e/f/g/a/ b/a/g/f/ e/d/c/B/ |"^O)" AE/A/ cA/c/ ec/e/ | a e2 d2 c | %22
"^O)" AE/A/ cA/c/ ec/e/ | a e2 d2 c | a/g/f/e/ f/e/d/c/ d/c/B/A/ | G/A/B/G/ A2 A,2 :| %26

